kora/mimetypes/scalable/application-vnd.jgraph.mxfile.svg

<svg xmlns="http://www.w3.org/2000/svg" width="48" height="48" version="1.1">
 <path style="opacity:0.2" d="M 10,5 C 8.892,5 8,5.892 8,7 V 43 C 8,44.108 8.892,45 10,45 H 38 C 39.108,45 40,44.108 40,43 V 17 L 28,5 Z"/>
 <path style="fill:#f58800" d="M 10,4 C 8.892,4 8,4.892 8,6 V 42 C 8,43.108 8.892,44 10,44 H 38 C 39.108,44 40,43.108 40,42 V 16 L 30,14 28,4 Z"/>
 <path style="opacity:0.2" d="M 40,17 28,5 V 15 C 28,16.108 28.892,17 30,17 Z"/>
 <path style="fill:#ffa637" d="M 40,16 28,4 V 14 C 28,15.108 28.892,16 30,16 Z"/>
 <path style="opacity:0.2;fill:#ffffff" d="M 10 4 C 8.892 4 8 4.892 8 6 L 8 7 C 8 5.892 8.892 5 10 5 L 28 5 L 28 4 L 10 4 z"/>
 <path style="fill:none;stroke:#3f3f3f;stroke-width:1.38462" d="M 17.76923,35.538461 24,24.461538 30.230769,35.538461"/>
 <path style="opacity:0.2" d="M 21.333984,22 C 20.595317,22 20,22.624791 20,23.400391 v 4.199218 C 20,28.375209 20.595317,29 21.333984,29 h 5.332032 C 27.404683,29 28,28.375209 28,27.599609 V 23.400391 C 28,22.624791 27.404683,22 26.666016,22 Z m -6,11 C 14.595317,33 14,33.624791 14,34.400391 v 4.199218 C 14,39.375209 14.595317,40 15.333984,40 h 5.332032 C 21.404683,40 22,39.375209 22,38.599609 V 34.400391 C 22,33.624791 21.404683,33 20.666016,33 Z m 12,0 C 26.595317,33 26,33.624791 26,34.400391 v 4.199218 C 26,39.375209 26.595317,40 27.333984,40 h 5.332032 C 33.404683,40 34,39.375209 34,38.599609 V 34.400391 C 34,33.624791 33.404683,33 32.666016,33 Z"/>
 <path style="fill:#ffffff" d="M 21.333984 21 C 20.595317 21 20 21.624791 20 22.400391 L 20 26.599609 C 20 27.375209 20.595317 28 21.333984 28 L 26.666016 28 C 27.404683 28 28 27.375209 28 26.599609 L 28 22.400391 C 28 21.624791 27.404683 21 26.666016 21 L 21.333984 21 z M 15.333984 32 C 14.595317 32 14 32.624791 14 33.400391 L 14 37.599609 C 14 38.375209 14.595317 39 15.333984 39 L 20.666016 39 C 21.404683 39 22 38.375209 22 37.599609 L 22 33.400391 C 22 32.624791 21.404683 32 20.666016 32 L 15.333984 32 z M 27.333984 32 C 26.595317 32 26 32.624791 26 33.400391 L 26 37.599609 C 26 38.375209 26.595317 39 27.333984 39 L 32.666016 39 C 33.404683 39 34 38.375209 34 37.599609 L 34 33.400391 C 34 32.624791 33.404683 32 32.666016 32 L 27.333984 32 z"/>
</svg>

<svg clip-rule="evenodd" fill-rule="evenodd" stroke-linejoin="round" stroke-miterlimit="2" viewBox="0 0 48 48" xmlns="http://www.w3.org/2000/svg">
 <linearGradient id="a" x2="1" gradientTransform="matrix(0 -49.619 49.619 0 615.22 51.088)" gradientUnits="userSpaceOnUse">
  <stop stop-color="#f29b2e" offset="0"/>
  <stop stop-color="#dda55d" offset="1"/>
 </linearGradient>
 <path transform="matrix(.75 0 0 .75 0 .199125)" d="m54 3.146c0-.926-.751-1.677-1.677-1.677h-34.705c-2.02 0-3.958.803-5.387 2.231-1.428 1.429-2.231 3.367-2.231 5.387v45.295c0 2.02.803 3.958 2.231 5.387 1.429 1.428 3.367 2.231 5.387 2.231h28.764c2.02 0 3.958-.803 5.387-2.231 1.428-1.429 2.231-3.367 2.231-5.387z" fill="url(#a)"/>
 <g transform="translate(0 -6)">
  <path d="m18.373 35.878-1.207-.679 6.834-12.15 6.834 12.15-1.207.679s-5.627-10.004-5.627-10.004z" fill="#744d1d"/>
  <path d="m21.334 21c-.739 0-1.334.625-1.334 1.4v4.2c0 .775.595 1.4 1.334 1.4h5.332c.739 0 1.334-.625 1.334-1.4v-4.2c0-.775-.595-1.4-1.334-1.4zm-6 11c-.739 0-1.334.625-1.334 1.4v4.2c0 .775.595 1.4 1.334 1.4h5.332c.739 0 1.334-.625 1.334-1.4v-4.2c0-.775-.595-1.4-1.334-1.4zm12 0c-.739 0-1.334.625-1.334 1.4v4.2c0 .775.595 1.4 1.334 1.4h5.332c.739 0 1.334-.625 1.334-1.4v-4.2c0-.775-.595-1.4-1.334-1.4z" fill="#ac6000" fill-rule="nonzero"/>
 </g>
</svg>
